remix/Media/notification-3-line.svg

<svg viewBox="0 0 24 24" fill="currentColor" xmlns="http://www.w3.org/2000/svg"><path d="M20 17H22V19H2V17H4V10C4 5.58172 7.58172 2 12 2C16.4183 2 20 5.58172 20 10V17ZM18 17V10C18 6.68629 15.3137 4 12 4C8.68629 4 6 6.68629 6 10V17H18ZM9 21H15V23H9V21Z"/></svg>

<svg viewBox="0 0 24 24" xmlns="http://www.w3.org/2000/svg"><path fill="none" d="M0 0h24v24H0Z"/><path d="M20 17h2v2H2v-2h2v-7 0c0-4.42 3.58-8 8-8 4.41 0 8 3.58 8 8v7Zm-2 0v-7 0c0-3.32-2.69-6-6-6 -3.32 0-6 2.68-6 6v7h12Zm-9 4h6v2H9v-2Z"/></svg>
